X: 38426
T: Star, The
R: jig
M: 6/8
K: Gmajor
|:e|dBB GBB|GBB d2e|dBB GBB|cAB c2e|
dBB GBB|GBB def|gfe dcB|cAB c2:|
|:e|dBB gBB|dBB d2e|dBB gBB|cAB c2e|
dBB gBB|dBB def|gfe dcB|cAB c2:|

